build/img/icons/message.svg

<svg width="24" height="24" fill="none" xmlns="http://www.w3.org/2000/svg">
    <path d="M5 18v3.766l1.515-.909L11.277 18H16c1.103 0 2-.897 2-2V8c0-1.103-.897-2-2-2H4c-1.103 0-2 .897-2 2v8c0 1.103.897 2 2 2h1zM4 8h12v8h-5.277L7 18.234V16H4V8z" fill="#5CC773"/>
    <path d="M20 2H8c-1.103 0-2 .897-2 2h12c1.103 0 2 .897 2 2v8c1.103 0 2-.897 2-2V4c0-1.103-.897-2-2-2z" fill="#5CC773"/>
</svg>

<svg width="24" height="24" viewBox="0 0 24 24" fill="none" xmlns="http://www.w3.org/2000/svg">
<path d="M5 18V21.766L6.515 20.857L11.277 18H16C17.103 18 18 17.103 18 16V8C18 6.897 17.103 6 16 6H4C2.897 6 2 6.897 2 8V16C2 17.103 2.897 18 4 18H5ZM4 8H16V16H10.723L7 18.234V16H4V8Z" fill="#5CC773"/>
<path d="M20 2H8C6.897 2 6 2.897 6 4H18C19.103 4 20 4.897 20 6V14C21.103 14 22 13.103 22 12V4C22 2.897 21.103 2 20 2Z" fill="#5CC773"/>
</svg>
